X:1

T:Robbin Powers Fancy

M:6/8

L:1/8

R:Jig

S:O’Farrell – Pocket Companion, vol. II (c. 1806)

Z:AK/Fiddler’s Companion

K:D

EFE EFA | B2A Bcd | DED FDF | ABA AGF | EFE EFA |
B2A B2c | dcd AFD | EFE E2 :: d2d dcB | efe efg | fdB Bcd |
ABG FED | ded dcB | efe efg | fdB AFD | EFE E3 :|
                                               

ROBE A JOSEPHINE. See "T'en As Eu, T'en N'auras P'us."

                       

ROBE A PARASOL. See "Embrasse-moi Encore."

                       

ROBE BARREE. AKA and see “Ernestine.” Cajun. Recorded by Amede Ardoin. Arhoolie CD445, Alphonse “Bois Sec” Ardoin with Canray Fontenot - “La Musique Creole.”

                       

ROBERT CORMACK, ABERDEEN. Scottish, Slow Air (4/4 time). F Major. Standard tuning. AA’BB’. The tune was composed by James Henry (1860-1914). Source for notated version: Peter Chaisson, Jr. (b. 1942, Bear River, North-East Kings County, Prince Edward Island) [Perlman]. Henderson (Flowers of Scottish Melody), 1935. Perlman (The Fiddle Music of Prince Edward Island), 1996; pg. 209. Rounder LP7005, Carl MacKenzie – “Welcome to Your Feet Again” (1976). Rounder Heritage Series 1166-11592-2, Carl MacKenzie (et al) – “The Art of Traditional Fiddle” (2001).

